icons/svg/check-bookmark.svg

﻿<?xml version="1.0" encoding="utf-8"?>
<!DOCTYPE svg PUBLIC "-//W3C//DTD SVG 1.1//EN" "http://www.w3.org/Graphics/SVG/1.1/DTD/svg11.dtd">
<svg xmlns="http://www.w3.org/2000/svg" xmlns:xlink="http://www.w3.org/1999/xlink" version="1.1" baseProfile="full" width="24" height="24" viewBox="0 0 24.00 24.00" enable-background="new 0 0 24.00 24.00" xml:space="preserve">
	<path fill="#000000" fill-opacity="1" stroke-width="0.2" stroke-linejoin="round" d="M 4.99999,1.00006L 19,1.00006C 20.1045,1.00006 21,1.89549 21,3.00006L 21,16C 21,16.7108 20.6292,17.335 20.0704,17.6897L 12,23L 3.92884,17.6893C 3.37051,17.3345 3.00002,16.7105 3.00002,16L 2.99999,3.00006C 2.99999,1.89549 3.89542,1.00006 4.99999,1.00006 Z M 10,16L 19,7L 17.5858,5.58579L 10,13.1716L 6.41421,9.58579L 5,11L 10,16 Z "/>
</svg>

<svg xmlns="http://www.w3.org/2000/svg" version="1.1" baseProfile="full" width="24" height="24" viewBox="0 0 24.00 24.00" xml:space="preserve"><path fill="#000" fill-opacity="1" stroke-width=".2" stroke-linejoin="round" d="M5 1h14c1.105 0 2 .895 2 2v13c0 .71-.37 1.335-.93 1.69L12 23l-8.07-5.31C3.37 17.333 3 16.71 3 16V3c0-1.105.895-2 2-2zm5 15l9-9-1.414-1.414L10 13.172 6.414 9.586 5 11l5 5z"/></svg>
